actions/16/resource-calendar-insert.svg

<svg xmlns="http://www.w3.org/2000/svg" viewBox="0 0 16 16">
  <defs id="defs3051">
    <style type="text/css" id="current-color-scheme">.ColorScheme-Text {color:#fcfcfc;}</style>
  </defs>
 <path style="fill:currentColor;fill-opacity:1;stroke:none" 
     d="m 2,2 c 0,0 0,8 0,10 0,2 2,2 2,2 H 8 V 13 H 4 C 4,13 3,13 3,12 3,11 3,5 3,5 h 10 v 3 h 1 V 2 H 12 V 4 H 10 V 2 H 6 V 4 H 4 V 2 Z M 4,6 V 8 H 6 V 6 Z M 7,6 V 8 H 9 V 6 Z m 3,0 v 2 h 2 V 6 Z M 4,9 v 2 H 6 V 9 Z m 7,0 v 2 H 9 v 1 h 2 v 2 h 1 v -2 h 2 V 11 H 12 V 9 Z"
     class="ColorScheme-Text"
     />
</svg>

<svg xmlns="http://www.w3.org/2000/svg" viewBox="0 0 16 16">
  <defs id="defs3051">
    <style type="text/css" id="current-color-scheme">
      .ColorScheme-Text {
        color:#eff0f1;
      }
      </style>
  </defs>
 <path style="fill:currentColor;fill-opacity:1;stroke:none" 
     d="M 2 2 L 2 14 L 8 14 L 8 13 L 3 13 L 3 5 L 13 5 L 13 8 L 14 8 L 14 2 L 12 2 L 12 4 L 10 4 L 10 2 L 6 2 L 6 4 L 4 4 L 4 2 L 2 2 z M 4 6 L 4 8 L 6 8 L 6 6 L 4 6 z M 7 6 L 7 8 L 9 8 L 9 6 L 7 6 z M 10 6 L 10 8 L 12 8 L 12 6 L 10 6 z M 4 9 L 4 11 L 6 11 L 6 9 L 4 9 z M 11 9 L 11 11 L 9 11 L 9 12 L 11 12 L 11 14 L 12 14 L 12 12 L 14 12 L 14 11 L 12 11 L 12 9 L 11 9 z "
     class="ColorScheme-Text"
     />
</svg>
